X: 10692
M: C|
L: 1/8
K: Gm
uD |\
ud |\
g<b (d<b) (c<a) B<g | A<f (c<f) (A<F)F>A |\
g<b (d<b) (c<a) B<g | A<g(d<g) (B<G)G> |]
d |\
g<b (d<b) (c<a) B<g | A<f (c<f) (A<F) F>A |\


